X: 12221
T: Fair Maid Of Oban, The
R: reel
M: 4/4
K: Bminor
|:f2 ef BB d2|f2 ef d2 eA|f2 ef BB d2|eA c2 AA ec:|
|:BB fB BB d2|BB fB cA ec|BB fB BB df|eA c2 AA ec:|

